X:916
T:Willie Duncan
R:Strathspey
C:Nathaniel Gow
B:The Athole Collection
M:C
L:1/8
K:C
E|:C<C C>G E<C ~E2|D<d d>c A<d d>f|e>cd>B c<A G2|A/B/c GE G<cc<e:|
|:c<c ~c>a g<c e2|d<d a>d f>d f<a|1 g>ae>f d<B c2|A/B/c G>E G<cc<e:|2
g>ae>f d>ec>e|A/B/c G>E G<cc||

